src/assets/filled/DriverRefresh.svg

<?xml version="1.0" encoding="UTF-8"?>
<svg width="24" height="24" viewBox="0 0 24 24" xmlns="http://www.w3.org/2000/svg">
 <path d="m9.93 12.75h-6.93c-0.55 0-1 0.45-1 1v2.44c0 3.21 2.6 5.81 5.81 5.81h1.7c0.77 0 1.24-0.82 0.87-1.5-0.79-1.47-1.1-3.24-0.71-5.1 0.14-0.68 0.38-1.32 0.7-1.92 0.17-0.33-0.06-0.73-0.44-0.73zm-3.18 5.25c0 0.41-0.34 0.75-0.75 0.75s-0.75-0.34-0.75-0.75v-2c0-0.41 0.34-0.75 0.75-0.75s0.75 0.34 0.75 0.75v2z"/>
 <path d="m16.19 2h-8.38c-3.21 0-5.81 2.6-5.81 5.81v2.44c0 0.55 0.45 1 1 1h8.84c0.22 0 0.43-0.08 0.61-0.22 0.86-0.66 1.87-1.14 2.95-1.36 1.86-0.39 3.63-0.08 5.1 0.71 0.68 0.36 1.5-0.1 1.5-0.87v-1.7c0-3.21-2.6-5.81-5.81-5.81zm-9.44 6.25c0 0.41-0.34 0.75-0.75 0.75s-0.75-0.34-0.75-0.75v-2c0-0.41 0.34-0.75 0.75-0.75s0.75 0.34 0.75 0.75v2zm4 0c0 0.41-0.34 0.75-0.75 0.75s-0.75-0.34-0.75-0.75v-2c0-0.41 0.34-0.75 0.75-0.75s0.75 0.34 0.75 0.75v2zm7.25-0.25h-4c-0.41 0-0.75-0.34-0.75-0.75s0.34-0.75 0.75-0.75h4c0.41 0 0.75 0.34 0.75 0.75s-0.34 0.75-0.75 0.75z"/>
 <path d="m17 11c-3.31 0-6 2.69-6 6s2.69 6 6 6 6-2.69 6-6-2.69-6-6-6zm2.93 7.2c-0.16 0.39-0.39 0.74-0.69 1.04-0.6 0.6-1.39 0.93-2.24 0.93-0.68 0-1.32-0.22-1.86-0.62v0.14c0 0.31-0.25 0.57-0.57 0.57-0.32-0.01-0.57-0.26-0.57-0.58v-1.44c0-0.31 0.25-0.57 0.57-0.57h1.44c0.31 0 0.57 0.25 0.57 0.57 0 0.29-0.21 0.51-0.49 0.55 0.76 0.37 1.73 0.25 2.34-0.36 0.19-0.19 0.34-0.42 0.44-0.67 0.12-0.29 0.45-0.43 0.74-0.31 0.3 0.12 0.44 0.46 0.32 0.75zm0.07-2.44c0 0.31-0.25 0.57-0.57 0.57h-1.44c-0.31 0-0.57-0.25-0.57-0.57 0-0.29 0.21-0.51 0.49-0.55-0.76-0.37-1.73-0.25-2.35 0.36-0.17 0.17-0.3 0.36-0.4 0.57s-0.3 0.33-0.51 0.33c-0.08 0-0.16-0.02-0.24-0.05-0.28-0.13-0.41-0.47-0.27-0.76 0.16-0.33 0.37-0.63 0.62-0.89 0.6-0.6 1.39-0.93 2.24-0.93 0.68 0 1.32 0.22 1.86 0.62v-0.13c0-0.31 0.25-0.57 0.57-0.57s0.57 0.24 0.57 0.56v1.44z"/>
</svg>

<svg width="24" height="24" viewBox="0 0 24 24"  xmlns="http://www.w3.org/2000/svg">
<path d="M9.93 12.75H3C2.45 12.75 2 13.2 2 13.75V16.19C2 19.4 4.6 22 7.81 22H9.51C10.28 22 10.75 21.18 10.38 20.5C9.59 19.03 9.28 17.26 9.67 15.4C9.81 14.72 10.05 14.08 10.37 13.48C10.54 13.15 10.31 12.75 9.93 12.75ZM6.75 18C6.75 18.41 6.41 18.75 6 18.75C5.59 18.75 5.25 18.41 5.25 18V16C5.25 15.59 5.59 15.25 6 15.25C6.41 15.25 6.75 15.59 6.75 16V18Z" />
<path d="M16.19 2H7.81C4.6 2 2 4.6 2 7.81V10.25C2 10.8 2.45 11.25 3 11.25H11.84C12.06 11.25 12.27 11.17 12.45 11.03C13.31 10.37 14.32 9.89 15.4 9.67C17.26 9.28 19.03 9.59 20.5 10.38C21.18 10.74 22 10.28 22 9.51V7.81C22 4.6 19.4 2 16.19 2ZM6.75 8.25C6.75 8.66 6.41 9 6 9C5.59 9 5.25 8.66 5.25 8.25V6.25C5.25 5.84 5.59 5.5 6 5.5C6.41 5.5 6.75 5.84 6.75 6.25V8.25ZM10.75 8.25C10.75 8.66 10.41 9 10 9C9.59 9 9.25 8.66 9.25 8.25V6.25C9.25 5.84 9.59 5.5 10 5.5C10.41 5.5 10.75 5.84 10.75 6.25V8.25ZM18 8H14C13.59 8 13.25 7.66 13.25 7.25C13.25 6.84 13.59 6.5 14 6.5H18C18.41 6.5 18.75 6.84 18.75 7.25C18.75 7.66 18.41 8 18 8Z" />
<path d="M17 11C13.69 11 11 13.69 11 17C11 20.31 13.69 23 17 23C20.31 23 23 20.31 23 17C23 13.69 20.31 11 17 11ZM19.93 18.2C19.77 18.59 19.54 18.94 19.24 19.24C18.64 19.84 17.85 20.17 17 20.17C16.32 20.17 15.68 19.95 15.14 19.55V19.69C15.14 20 14.89 20.26 14.57 20.26C14.25 20.25 14 20 14 19.68V18.24C14 17.93 14.25 17.67 14.57 17.67H16.01C16.32 17.67 16.58 17.92 16.58 18.24C16.58 18.53 16.37 18.75 16.09 18.79C16.85 19.16 17.82 19.04 18.43 18.43C18.62 18.24 18.77 18.01 18.87 17.76C18.99 17.47 19.32 17.33 19.61 17.45C19.91 17.57 20.05 17.91 19.93 18.2ZM20 15.76C20 16.07 19.75 16.33 19.43 16.33H17.99C17.68 16.33 17.42 16.08 17.42 15.76C17.42 15.47 17.63 15.25 17.91 15.21C17.15 14.84 16.18 14.96 15.56 15.57C15.39 15.74 15.26 15.93 15.16 16.14C15.06 16.35 14.86 16.47 14.65 16.47C14.57 16.47 14.49 16.45 14.41 16.42C14.13 16.29 14 15.95 14.14 15.66C14.3 15.33 14.51 15.03 14.76 14.77C15.36 14.17 16.15 13.84 17 13.84C17.68 13.84 18.32 14.06 18.86 14.46V14.33C18.86 14.02 19.11 13.76 19.43 13.76C19.75 13.76 20 14 20 14.32V15.76Z" />
</svg>
